X: 536
T: Pan wugeng
%%abc-version 2.0
%%abcx-abcm2ps-target-version 5.9.1 (29 Sep 2008)
%%abc-creator hum2abc beta
%%abcx-conversion-date 2013/10/02 07:52:30
%%abc-edited-by Helmut Schaffrath
%%humdrum-veritas 3097075045
%%humdrum-veritas-data 226836160
%%continueall 1
%%barnumbers 0
L: 1/8
M: 2/4
K: A
AA2B [I:setbarnb 1]| 
c e c B | 
c A B c | 
A2z2 | 
e c e c | 
B c B A | 
F F A C | 
E4 | 
A CE2 | 
E c B c | 
E2F2 | 
A A B c | 
A A B c | 
A4 |]  



